X:893
%%annotationfont Times-Roman
T:Looking For A Partner
C:Joe Buchanan's Scottish Tome - Page 452.0-453.0
I:452 0
Z:Carl Allison
R:Two-step
L:1/8
M:6/8
K:D
W:Intro
%%vskip 0
ddd dcB | A2 A AGF | EFG ABc | (d3 d2) :|
%%vskip 20
A, | F2F FED | A2A A2F | G2G GFE | B2B B2 d |
c2=c ^c2d | e2c B2A | d2c d2e | fed cBA |
F2F FED | A2A A2F | G2G GFE | B2B B2c |
ddd dcB | A2 A AGF | EFG ABc | (d3 d2) :|
e | f3 f3 | fed A3 | dcd e2d | c3 B3 |
g3 g3 | gfe B3 | c2d ^d2 e | f2e cBA |
f3 f3 | fed A3 | dcd e d | c3 B3 |
g2g gfe | d2d dcB | A3 c3 | dAB cde |
e | f3 f3 | fed A3 | dcd e2d | c3 B3 |
g3 g3 | gfe B3 | c2d ^d2 e | f2e cBA |
e | f3 f3 | fed A3 | dcd e2d | c3 B3 |
g2g gfe | d2d dcB | A3 c3 | (d3 d2) |]
%%newpage
T:Looking For A Partner (cont)
[K:G] c2 | B3- B3 | c3 ^c3 | d2 ^c d2 c | (d3 d2) c |
B2 c ^c2 d | e3 d3 | F3- F2 | F2 D2 F2 A2 |
c3 c3 | c2 B2 A2 B2 | c3- c3 | c2 B c2 d |
f2 e3 | d3 c3 | (_B3 B3) | BDE FGA |
(B3 B3) | c3 ^c3 | e2  ^d2 e2 c | d3- d2 c |
B2 c ^c2 d | e3 d3 | (f3 f3) | f3 def |
g2 g gfe | g2 g2 gfe | d2 d dBG | (e3 e2) d |
cBc dcd | ede fef | g2 d2 edB | G3 G2 |]

